X:0
T:Jack & Michelle's Wedding Waltz
M:3/4
R:Waltz
K:G
"D7"DE FG A^A|"G"B2D2D2|B4D2|"C"cB A2G2|!
"G"B2D2D2|B4D2|d2B2G2|"D"A6-|A4 dc|!
"G"B2D2D2|B4D2|"C"c4BA|"G"B2D2D2|!
"D"A2G2F2|E2D2F2|"G"G6-|G4 AB|!
|:"C"E2c2E2| d2E2d2|e2E2e2|d2 E2c2|!
"G"B2D2B2| cBA2G2|"D"A6|DE FG A^A|!
"G"B2D2D2|B4D2|"C"cB A2G2|"G"B2D2D2|!
"G"B4D2|"D"A2G2F2|"G"G6-|G6:|]
